assets/logos/icons/eye.svg

<svg xmlns="http://www.w3.org/2000/svg" xmlns:xlink="http://www.w3.org/1999/xlink" width="24" height="24" viewBox="0 0 24 24">
  <defs>
    <path id="eye-a" d="M11.999,9 C13.655,9 14.999,10.344 14.999,12 C14.999,13.657 13.655,15 11.999,15 C10.342,15 8.999,13.657 8.999,12 C8.999,10.344 10.342,9 11.999,9 Z M17.4658,15.5352 L21.0018,11.9992 L17.4658,8.4652 C16.5218,7.5202 15.2668,7.0012 13.9318,7.0012 L10.0708,7.0002 C8.7358,7.0002 7.4798,7.5192 6.5348,8.4642 L2.9988,12.0002 L6.5348,15.5362 C7.4798,16.4802 8.7358,17.0002 10.0708,17.0002 L13.9308,16.9992 C15.2478,16.9992 16.5358,16.4662 17.4658,15.5352 Z M22.4148,10.5862 C23.1948,11.3652 23.1948,12.6352 22.4148,13.4142 L18.8798,16.9492 C17.5778,18.2522 15.7748,18.9992 13.9318,18.9992 L11.9998,19.0002 L10.0708,19.0002 C8.2008,19.0002 6.4428,18.2722 5.1208,16.9502 L1.5848,13.4142 C0.8048,12.6352 0.8048,11.3652 1.5848,10.5862 L5.1208,7.0502 C6.4428,5.7272 8.2008,5.0002 10.0708,5.0002 L13.9328,5.0012 C15.8008,5.0012 17.5588,5.7282 18.8798,7.0512 L22.4148,10.5862 Z"/>
  </defs>
  <use fill="#492F5C" fill-rule="evenodd" xlink:href="#eye-a"/>
</svg>

<svg height="24" viewBox="0 0 24 24" width="24" xmlns="http://www.w3.org/2000/svg"><path d="m11.999 9c1.656 0 3 1.344 3 3 0 1.657-1.344 3-3 3-1.657 0-3-1.343-3-3 0-1.656 1.343-3 3-3zm5.4668 6.5352 3.536-3.536-3.536-3.534c-.944-.945-2.199-1.464-3.534-1.464l-3.861-.001c-1.335 0-2.591.519-3.536 1.464l-3.536 3.536 3.536 3.536c.945.944 2.201 1.464 3.536 1.464l3.86-.001c1.317 0 2.605-.533 3.535-1.464zm4.949-4.949c.78.779.78 2.049 0 2.828l-3.535 3.535c-1.302 1.303-3.105 2.05-4.948 2.05l-1.932.001h-1.929c-1.87 0-3.628-.728-4.95-2.05l-3.536-3.536c-.78-.779-.78-2.049 0-2.828l3.536-3.536c1.322-1.323 3.08-2.05 4.95-2.05l3.862.001c1.868 0 3.626.727 4.947 2.05z" fill="#492f5c" fill-rule="evenodd"/></svg>
